X: 6
T: Cherish The Ladies
R: jig
M: 6/8
L: 1/8
K: Dmaj
dFF AFF|DFA AGF|GEE BEE|GBA GFE|
dFF AFF|DFA AGF|ABd efg|fdd d3:|
|:d3 fed|afd fed|c>de/f/ gfg|ece gfe|fga bag|
agf edc|1dcB AGF|GEF GFE:|2dcB AFA|Bdd d3|]


Tune 590	Setting 23844

